_includes/icons/color-british-pound.svg

<svg fill="#666" height="50" viewBox="0 0 48 48" width="50" xmlns="http://www.w3.org/2000/svg"><path d="m44 24c0 11.044-8.956 20-20 20s-20-8.956-20-20 8.956-20 20-20 20 8.956 20 20z" fill="#3f51b5"/><path d="m22 25v2.691c0 1.336-.219 2.465-.863 3.309h10.863l-.016 3h-15.984v-3h1.246c.395-.09.762-.449.977-1 .219-.551.266-1.23.266-2.133l-.044-2.867h-2.445v-3h2.352l-.121-3.496c0-2.012.633-3.598 1.898-4.762 1.266-1.16 2.926-1.742 4.98-1.742 2.051 0 3.668.539 4.84 1.625 1.176 1.086 1.762 2.539 1.762 4.371h-3.719c0-.938-.266-1.66-.797-2.18-.531-.516-1.273-.773-2.223-.773-.902 0-1.613.32-2.133.965-.523.644-.839 1.48-.839 2.512v3.48h5v3z" fill="#e8eaf6"/></svg>

<svg xmlns="http://www.w3.org/2000/svg" viewBox="0 0 48 48" width="50" height="50" fill="#666"><path d="M44,24c0,11.044-8.956,20-20,20S4,35.044,4,24S12.956,4,24,4S44,12.956,44,24z" fill="#3f51b5"/><path d="M22,25v2.691c0,1.336-0.219,2.465-0.863,3.309H32l-0.016,3H16v-3h1.246	c0.395-0.09,0.762-0.449,0.977-1c0.219-0.551,0.266-1.23,0.266-2.133L18.445,25H16v-3h2.352l-0.121-3.496	c0-2.012,0.633-3.598,1.898-4.762c1.266-1.16,2.926-1.742,4.98-1.742c2.051,0,3.668,0.539,4.84,1.625	c1.176,1.086,1.762,2.539,1.762,4.371h-3.719c0-0.938-0.266-1.66-0.797-2.18c-0.531-0.516-1.273-0.773-2.223-0.773	c-0.902,0-1.613,0.32-2.133,0.965C22.316,16.652,22,17.488,22,18.52V22h5v3H22z" fill="#e8eaf6"/></svg>
